layanan/assets/img/img-systemdev/newlayout/arrow-right.svg

<?xml version="1.0" encoding="UTF-8"?>
<svg width="20px" height="14px" viewBox="0 0 20 14" version="1.1" xmlns="http://www.w3.org/2000/svg" xmlns:xlink="http://www.w3.org/1999/xlink">
    <!-- Generator: Sketch 52.1 (67048) - http://www.bohemiancoding.com/sketch -->
    <title>arrow-pointing-to-right</title>
    <desc>Created with Sketch.</desc>
    <g id="Page-1" stroke="none" stroke-width="1" fill="none" fill-rule="evenodd">
        <g id="Web-Sistem---Landing-Page-" transform="translate(-786.000000, -454.000000)" fill="#000000" fill-rule="nonzero">
            <g id="arrow-pointing-to-right" transform="translate(786.000000, 454.000000)">
                <path d="M19.7275999,6.33109234 L13.7759385,0.277030104 C13.4128128,-0.092343368 12.8238959,-0.092343368 12.4607702,0.277030104 C12.09757,0.646479252 12.09757,1.24537736 12.4607702,1.61482651 L16.8249003,6.05404332 L0.929947086,6.05404332 C0.416393107,6.05404332 0,6.47760065 0,6.99999054 C0,7.52230476 0.416393107,7.94593776 0.929947086,7.94593776 L16.8249003,7.94593776 L12.460919,12.3851546 C12.0977188,12.7546037 12.0977188,13.3535018 12.460919,13.722951 C12.6424446,13.9075242 12.8805111,14 13.1185032,14 C13.3564952,14 13.5944873,13.9075242 13.7760873,13.722951 L19.7275999,7.66888874 C20.0908,7.29943959 20.0908,6.70054149 19.7275999,6.33109234 Z" id="Path"></path>
            </g>
        </g>
    </g>
</svg>

<svg id="Layer_1" data-name="Layer 1" xmlns="http://www.w3.org/2000/svg" viewBox="0 0 20 14"><g id="Page-1"><g id="Web-Sistem---Landing-Page-"><g id="arrow-pointing-to-right"><path id="Path" d="M19.73,6.33l-6-6a.92.92,0,0,0-1.32,0,1,1,0,0,0,0,1.33l4.36,4.44H.93A1,1,0,0,0,.93,8H16.82l-4.36,4.44a1,1,0,0,0,0,1.33.9.9,0,0,0,.66.28.92.92,0,0,0,.66-.28l6-6.05A1,1,0,0,0,19.73,6.33Z" transform="translate(0 0)"/></g></g></g></svg>
